X: 14
T: Missa Ave regina celorum &mdash; Agnus Dei
C: Gaspar van Weerbeke
%%abc-version 2.0
%%abcx-abcm2ps-target-version 5.9.1 (29 Sep 2008)
%%abc-creator hum2abc beta
%%abcx-conversion-date 2022/03/06 13:05:57
%%abc-copyright Copyright 2014, Pavanello, Agnese
%%abc-edited-by Mair-Gruber, Roland
%%humdrum-veritas 2653757601
%%humdrum-veritas-data 2791615598
%%linebreak <none>
%%barnumbers 0
L: 1/4
M: 3/2
N: Derived from Gas0101e-Missa_Ave_regina_celorum-Agnus.krn
%%staves [1 2 3 4]
V: 1 clef=treble-8
V: 2 clef=treble-8
V: 3 clef=bass
V: 4 clef=bass
K: F
[V:1] F6 | 
[V:2] F6- | 
[V:3] z6 | 
[V:4] z6 | 
[V:1] A>Bc>ABc- | 
[V:2] F2E>CDE- | 
[V:3] z6 | 
[V:4] z6 | 
[V:1] c/d/e2fdc/B/ | 
[V:2] EC2D2E | 
[V:3] z6 | 
[V:4] z6 | 
[V:1] A2zFG2 | 
[V:2] F2>D2E2 | 
[V:3] z6 | 
[V:4] z6 | 
[V:1] A2GAB2 | 
[V:2] F2zFG2 | 
[V:3] z6 | 
[V:4] z6 | 
[V:1] AcBA2G | 
[V:2] A2GAB2 | 
[V:3] z6 | 
[V:4] z6 | 
[V:1] AB2AG2 | 
[V:2] AG2F2E | 
[V:3] z6 | 
[V:4] z2z2C,2 | 
[V:1] Ff2d2c | 
[V:2] F4E2 | 
[V:3] z6 | 
[V:4] D,B,,>A,,B,,C,2 | 
[V:1] d/c/B/A/Gc2=B | 
[V:2] D2ECD2 | 
[V:3] z6 | 
[V:4] G,,2C,A,,G,,2 | 
[V:1] c>ABAG2 | 
[V:2] C2DF2E | 
[V:3] z6 | 
[V:4] A,,2G,,F,,C,2 | 
[V:1] Fc2d2c | 
[V:2] F/G/A/B/cBGc | 
[V:3] F,4E,2 | 
[V:4] F,,>G,,A,,B,,C,A,, | 
[V:1] dfegfd | 
[V:2] B2zGAB | 
[V:3] D,2E,2D,2 | 
[V:4] B,,D,2C,2B,, | 
[V:1] ec2=Bc2 | 
[V:2] AG2FG3/F/ | 
[V:3] C,2D,F,2E, | 
[V:4] C,E,D,2C,2 | 
[V:1] z2c2A2 | 
[V:2] D2C3D- | 
[V:3] F,6 | 
[V:4] z2F,,4 | 
[V:1] B2c2AB | 
[V:2] D2C2CD | 
[V:3] z6 | 
[V:4] G,,2A,,3G,, | 
[V:1] Ad2cB2 | 
[V:2] CF4E | 
[V:3] F,4G,2 | 
[V:4] A,,B,,2A,,G,,2 | 
[V:1] A>Bc3d | 
[V:2] F2z2z2 | 
[V:3] A,4G,2 | 
[V:4] F,,F,2C,2B,, | 
[V:1] cd>cf2e | 
[V:2] zG2CDE | 
[V:3] A,B,2A,G,2 | 
[V:4] A,,G,,2A,,B,,C, | 
[V:1] f4z2 | 
[V:2] CD2Cc3/B/ | 
[V:3] F,6 | 
[V:4] F,,6 | 
[V:1] f4e2 | 
[V:2] A/G/F2E/D/C2 | 
[V:3] z6 | 
[V:4] F,,>G,,A,,B,,C,A,, | 
[V:1] d4ec | 
[V:2] B,4z2 | 
[V:3] F,4E,2 | 
[V:4] B,,/C,/D,/E,/F,D,C,2 | 
[V:1] d>efd2c- | 
[V:2] D3G2F | 
[V:3] D,4E,C, | 
[V:4] B,,4A,,2 | 
[V:1] c=Bc2z2 | 
[V:2] G2zC2B, | 
[V:3] D,2C,F,2E, | 
[V:4] G,,2A,,F,,G,,2 | 
[V:1] ABBcd2 | 
[V:2] CD2CzF- | 
[V:3] F,6 | 
[V:4] F,,B,,2A,,B,,2 | 
[V:1] A2A2B2 | 
[V:2] FC2D>CB, | 
[V:3] z6 | 
[V:4] F,,4G,,2 | 
[V:1] c3d>cB | 
[V:2] A,A>GF/E<DE/ | 
[V:3] F,4G,2 | 
[V:4] A,,3B,,>A,,G,, | 
[V:1] Ac>BGg2 | 
[V:2] F/G/A/B/cBG2 | 
[V:3] A,3B,>A,G, | 
[V:4] F,,2>G,,2_E,,2 | 
[V:1] cdcf2e | 
[V:2] ABc2c2 | 
[V:3] F,2>A,2G,2 | 
[V:4] F,,B,,A,,F,,C,2 | 
[V:1] f4z2 | 
[V:2] A2Fc2d- | 
[V:3] F,6 | 
[V:4] F,,2z2F,,2 | 
[V:1] d2c2B2 | 
[V:2] d/c/BA2zD | 
[V:3] z2F,2G,2 | 
[V:4] G,,2A,,2B,,2 | 
[V:1] cAd2c2 | 
[V:2] EFG2C3/D/ | 
[V:3] A,2B,2A,A,- | 
[V:4] A,,A,,2G,,A,,C,- | 
[V:1] ABcAG2 | 
[V:2] E/F/G2F2E | 
[V:3] A,G,A,C2B, | 
[V:4] C,B,,A,,F,,G,,2 | 
[V:1] zc2BAG | 
[V:2] F2C_EFC- | 
[V:3] A,F,G,2F,G, | 
[V:4] F,,2z2z2 | 
[V:1] F/G/A/B/cd>ef- | 
[V:2] Cc2B2A- | 
[V:3] A,2F,2F,2 | 
[V:4] F,,>G,,A,,B,,>C,D,/E,/ | 
[V:1] f/e/d2c2=B | 
[V:2] ABG4 | 
[V:3] D,2E,2D,2 | 
[V:4] F,B,,C,2G,,2 | 
[V:1] c2df2e | 
[V:2] zcBAG2 | 
[V:3] C,2z2C,2 | 
[V:4] z6 | 
[V:1] f2g2f2 | 
[V:2] F2z2z2 | 
[V:3] D,F,2E,F,2 | 
[V:4] z2C,2D,F,- | 
[V:1] z2f2g2 | 
[V:2] C2DF2E | 
[V:3] G,2F,2z2 | 
[V:4] F,E,F,2C,2 | 
[V:1] a2b>af2 | 
[V:2] FAG2CD- | 
[V:3] z2z2F,2 | 
[V:4] F,,2G,,2A,,B,,- | 
[V:1] b2ag>ab/c'/ | 
[V:2] DEFG3 | 
[V:3] G,2A,B,2A,/G,/ | 
[V:4] B,,/A,,/G,,F,,_E,3 | 
[V:1] ag2f2e | 
[V:2] Ac2=Bc2 | 
[V:3] F,E,F,2G,2 | 
[V:4] F,C,D,2C,2 | 
[V:1] f6 ||  
[V:2] c6 & A6 ||  
[V:3] F,6 ||  
[V:4] F,,6 ||  
[V:1] [M:2/2]z4 | 
[V:2] [M:2/2]C4 | 
[V:3] [M:2/2]z4 | 
[V:4] [M:2/2]C,3A,, | 
[V:1] z4 | 
[V:2] D2CF- | 
[V:3] z4 | 
[V:4] B,,2C,A,,- | 
[V:1] z4 | 
[V:2] FDE2 | 
[V:3] z4 | 
[V:4] A,,F,,G,,2 | 
[V:1] c3A | 
[V:2] CE2F | 
[V:3] z4 | 
[V:4] z4 | 
[V:1] B2cA- | 
[V:2] G2C2 | 
[V:3] z4 | 
[V:4] z4 | 
[V:1] AFG2 | 
[V:2] DF2E | 
[V:3] z4 | 
[V:4] zF,,C,2 | 
[V:1] zc>BA | 
[V:2] F2zF | 
[V:3] z4 | 
[V:4] F,,>G,,A,,G,,/F,,/ | 
[V:1] GF2E | 
[V:2] GAB2 | 
[V:3] z4 | 
[V:4] E,,F,,G,,2 | 
[V:1] Ff2e- | 
[V:2] A3G/F/ | 
[V:3] z4 | 
[V:4] zF,,/G,,/ A,,/B,,/C,- | 
[V:1] ecde | 
[V:2] EF2E | 
[V:3] z4 | 
[V:4] C,B,,/A,,/G,,2 | 
[V:1] cAG2 | 
[V:2] F>GE2 | 
[V:3] z4 | 
[V:4] zF,,C,2 | 
[V:1] F2z2 | 
[V:2] z2F2 | 
[V:3] z4 | 
[V:4] D,3C,/B,,/ | 
[V:1] zFc2 | 
[V:2] CFG2 | 
[V:3] z4 | 
[V:4] C,2z_E, | 
[V:1] d3c/B/ | 
[V:2] A3B | 
[V:3] z4 | 
[V:4] D,F,2_E,/D,/ | 
[V:1] _ed_ed- | 
[V:2] cBGA- | 
[V:3] z4 | 
[V:4] C,G,2F, | 
[V:1] dc2=B | 
[V:2] A/G/G2F | 
[V:3] z4 | 
[V:4] _E,C,D,2 | 
[V:1] c2z2 | 
[V:2] G>ABc- | 
[V:3] z4 | 
[V:4] C,2D,E, | 
[V:1] z2B2 | 
[V:2] cAG2 | 
[V:3] z4 | 
[V:4] C,F,2E, | 
[V:1] Ac2d- | 
[V:2] z4 | 
[V:3] z4 | 
[V:4] F,>G,A,B, | 
[V:1] d/B<cA/B- | 
[V:2] z4 | 
[V:3] z4 | 
[V:4] G,A,F,G,- | 
[V:1] BA/G/F2 | 
[V:2] z2F3/G/ | 
[V:3] z4 | 
[V:4] G,/D,/E,F,F,,- | 
[V:1] z4 | 
[V:2] A/B/cde- | 
[V:3] z4 | 
[V:4] F,,/G,,/A,,B,,C,- | 
[V:1] z2f2 | 
[V:2] ec2=B | 
[V:3] z4 | 
[V:4] C,E,D,2 | 
[V:1] e>fga- | 
[V:2] c2z2 | 
[V:3] z4 | 
[V:4] C,>D,E,F,- | 
[V:1] a/g<ba/g/f/ | 
[V:2] z2zc- | 
[V:3] z4 | 
[V:4] F,/E,<G,F,/E,/D,/ | 
[V:1] efg2 | 
[V:2] cAGc- | 
[V:3] z4 | 
[V:4] C,F,2E, | 
[V:1] cf2e | 
[V:2] cAG2 | 
[V:3] z4 | 
[V:4] F,2C,2 | 
[V:1] f>ec3/d/ | 
[V:2] F3E/D/ | 
[V:3] z4 | 
[V:4] z4 | 
[V:1] e4 | 
[V:2] C2z2 | 
[V:3] z4 | 
[V:4] z2C,2 | 
[V:1] z2c2 | 
[V:2] z4 | 
[V:3] z4 | 
[V:4] B,,C,2B,,/A,,/ | 
[V:1] Bc2B/A/ | 
[V:2] z2F2 | 
[V:3] z4 | 
[V:4] G,,A,,F,,2 | 
[V:1] GAF3/G/ | 
[V:2] EF>ED | 
[V:3] z4 | 
[V:4] z4 | 
[V:1] AB2G | 
[V:2] CD>CB, | 
[V:3] z4 | 
[V:4] z4 | 
[V:1] Ac>BA- | 
[V:2] A,2z2 | 
[V:3] z4 | 
[V:4] zF,,>G,,A,, | 
[V:1] AGA2 | 
[V:2] z4 | 
[V:3] z4 | 
[V:4] B,,2A,,C,- | 
[V:1] zAB2 | 
[V:2] z4 | 
[V:3] z4 | 
[V:4] C,/B,,/A,,2G,, | 
[V:1] A2GA | 
[V:2] A,/B,/C/D/EF | 
[V:3] z4 | 
[V:4] A,,>B,,C,A,, | 
[V:1] Bc2A | 
[V:2] GA2G/F/ | 
[V:3] z4 | 
[V:4] G,,F,,F,2 | 
[V:1] G2F2 | 
[V:2] E2zF- | 
[V:3] z4 | 
[V:4] C,2F,,2- | 
[V:1] z4 | 
[V:2] FEFG | 
[V:3] z4 | 
[V:4] F,,G,,A,,B,, | 
[V:1] z4 | 
[V:2] A2AG/A/ | 
[V:3] z4 | 
[V:4] C,4 | 
[V:1] z4 | 
[V:2] B/A/G/F/ (3E F G | 
[V:3] z4 | 
[V:4] B,,2C,2 | 
[V:1] z4 | 
[V:2] CF2E | 
[V:3] z4 | 
[V:4] A,,F,,G,,2 | 
[V:1] zc2B | 
[V:2] F3G | 
[V:3] z4 | 
[V:4] F,,2z2 | 
[V:1] cde2 | 
[V:2] ABc3/B/ | 
[V:3] z4 | 
[V:4] F,2C,2 | 
[V:1] ed/e/ f/e/d/c/ | 
[V:2] G2F2 | 
[V:3] z4 | 
[V:4] C,B,,/C,/ D,/C,/B,,/A,,/ | 
[V:1] (3B c dGc- | 
[V:2] G2EC | 
[V:3] z4 | 
[V:4] (3G,, A,, B,,C,A,, | 
[V:1] c=Bc2 | 
[V:2] D2C2- | 
[V:3] z4 | 
[V:4] G,,2A,,F,, | 
[V:1] z2F3/G/ | 
[V:2] C2z2 | 
[V:3] z4 | 
[V:4] F,,>G,,A,,B,, | 
[V:1] ABcd | 
[V:2] F>GAB | 
[V:3] z4 | 
[V:4] A,,D,C,B,, | 
[V:1] cf2e/d/ | 
[V:2] cAB2 | 
[V:3] z4 | 
[V:4] _E,F,D,2 | 
[V:1] e/d/c/B/AB- | 
[V:2] c2zF- | 
[V:3] z4 | 
[V:4] C,>D,F,D,- | 
[V:1] BA2G | 
[V:2] FE2D | 
[V:3] z4 | 
[V:4] D,C,B,,2 | 
[V:1] AB>AG/F/ | 
[V:2] EF>ED/C/ | 
[V:3] z4 | 
[V:4] A,,D,>C,B,,/A,,/ | 
[V:1] E>DF2 ||  
[V:2] B,>A,C2 ||  
[V:3] z4 ||  
[V:4] G,,2F,,2 ||  
[V:1] c4- | 
[V:2] z4 | 
[V:3] F,4- | 
[V:4] F,,3G,, | 
[V:1] c2d2 | 
[V:2] z4 | 
[V:3] F,4 | 
[V:4] A,,2B,,2 | 
[V:1] c>def- | 
[V:2] z4 | 
[V:3] A,4 | 
[V:4] A,,>B,,C,D,- | 
[V:1] f/e/d/c/d2 | 
[V:2] z4 | 
[V:3] B,4 | 
[V:4] D,/C,/B,,/A,,/G,,2 | 
[V:1] z4 | 
[V:2] C>DEF- | 
[V:3] C4- | 
[V:4] z4 | 
[V:1] z4 | 
[V:2] F/G/A2G/F/ | 
[V:3] C4 | 
[V:4] z4 | 
[V:1] z4 | 
[V:2] G/F/E/D/CF | 
[V:3] B,2A,2 | 
[V:4] z4 | 
[V:1] z4 | 
[V:2] G/F/E/D/E2 | 
[V:3] G,4 | 
[V:4] z4 | 
[V:1] F/G/A/B/cd- | 
[V:2] z4 | 
[V:3] F,4 | 
[V:4] F,,>G,,A,,B,,- | 
[V:1] d/c/B/A/G2 | 
[V:2] D2E2 | 
[V:3] G,4 | 
[V:4] B,,/A,,/G,,/F,,/E,,2 | 
[V:1] F2cd | 
[V:2] Cc2B | 
[V:3] A,2F,2 | 
[V:4] F,,>G,,A,,B,, | 
[V:1] cf2e | 
[V:2] cAG2 | 
[V:3] z4 | 
[V:4] A,,F,,C,2 | 
[V:1] f>ecd- | 
[V:2] F2zA- | 
[V:3] F,4 | 
[V:4] F,,4 | 
[V:1] d/e/f/g/ed/c/ | 
[V:2] ABc/B/A/G/ | 
[V:3] D,2E,2 | 
[V:4] z4 | 
[V:1] Bc2=B | 
[V:2] FG2F | 
[V:3] D,C,D,2 | 
[V:4] z4 | 
[V:1] c4 | 
[V:2] A>GE3/F/ | 
[V:3] C,4 | 
[V:4] F,,2A,,2 | 
[V:1] z4 | 
[V:2] G>FD2 | 
[V:3] D,4 | 
[V:4] G,,>A,,B,,2 | 
[V:1] g4 | 
[V:2] C2zc- | 
[V:3] E,4 | 
[V:4] C,4 | 
[V:1] a2b/a/g/f/ | 
[V:2] cc2B | 
[V:3] F,4 | 
[V:4] F,2D,2 | 
[V:1] ef2e | 
[V:2] cAG2 | 
[V:3] G,4 | 
[V:4] C,4 | 
[V:1] (3f2c2d2 | 
[V:2] z4 | 
[V:3] F,4 | 
[V:4] z4 | 
[V:1] (3e2c2A2 | 
[V:2] (3:2:2C2D2 | 
[V:3] z4 | 
[V:4] z4 | 
[V:1] (3:2:2F2G2 | 
[V:2] (3:2:2D2E2 | 
[V:3] z4 | 
[V:4] z4 | 
[V:1] F4 | 
[V:2] F>ECD- | 
[V:3] z4 | 
[V:4] (3:2:2F,,2F,,2 | 
[V:1] z4 | 
[V:2] D/C/B,/A,/B,2 | 
[V:3] z4 | 
[V:4] (3:2:2F,,2G,,2 | 
[V:1] z4 | 
[V:2] (3A,2>B,2C2 | 
[V:3] F,4- | 
[V:4] (3A,,2>_G,,2A,,2 | 
[V:1] z4 | 
[V:2] (3:2:2D2E2 | 
[V:3] F,2G,2 | 
[V:4] (3B,,2>A,,2G,,2 | 
[V:1] (3A2>B2c2 | 
[V:2] (3:2:2F2C2 | 
[V:3] (3A,2>G,2A,2 | 
[V:4] (3:2:2F,,2F,,2 | 
[V:1] (3:2:2d2e2 | 
[V:2] (3:2:2B,2C2 | 
[V:3] (3B,2>A,2G,2 | 
[V:4] z4 | 
[V:1] (3f2g2c2 | 
[V:2] (3:2:2c2c2 | 
[V:3] (3F,2E,2F,2 | 
[V:4] (3F,,2C,2A,,2 | 
[V:1] (3:2:2f2e2 | 
[V:2] (3:2:2A2G2 | 
[V:3] (3:2:2F,2G,2 | 
[V:4] (3:2:2F,,2C,2 | 
[V:1] f>edc- | 
[V:2] A4 | 
[V:3] F,4 | 
[V:4] F,,4 | 
[V:1] c/B/A2G/F/ | 
[V:2] F>EDC- | 
[V:3] F,4 | 
[V:4] F,,2F,,2 | 
[V:1] E2ze- | 
[V:2] Cc2B/A/ | 
[V:3] G,4- | 
[V:4] C,2zC,- | 
[V:1] ee2e | 
[V:2] G2z2 | 
[V:3] G,4 | 
[V:4] C,C,2C, | 
[V:1] f4 | 
[V:2] F>EC3/D/ | 
[V:3] A,4 | 
[V:4] F,,4 | 
[V:1] g2f2 | 
[V:2] _E2CD- | 
[V:3] B,2A,2- | 
[V:4] _E,,2F,,2 | 
[V:1] d4 | 
[V:2] DCB,2 | 
[V:3] A,2G,2 | 
[V:4] G,,4 | 
[V:1] c3A | 
[V:2] A,2E2 | 
[V:3] A,4 | 
[V:4] z2C,2 | 
[V:1] BA2G | 
[V:2] FE2D | 
[V:3] z4 | 
[V:4] D,C,B,,2 | 
[V:1] Ac2B | 
[V:2] EFD2 | 
[V:3] z4 | 
[V:4] A,,F,,G,,2 | 
[V:1] AFG2 | 
[V:2] CF2E | 
[V:3] zC2B, | 
[V:4] A,,B,,G,,2 | 
[V:1] Acde | 
[V:2] F2z2 | 
[V:3] A,F,G,2 | 
[V:4] F,,F,,2E,, | 
[V:1] cf2e | 
[V:2] F2G2 | 
[V:3] A,2z2 | 
[V:4] F,,2C,2 | 
[V:1] f4 | 
[V:2] F3c- | 
[V:3] z2A,2- | 
[V:4] F,,4- | 
[V:1] z2d2 | 
[V:2] cB/A/B2- | 
[V:3] A,2G,2- | 
[V:4] F,,2G,,2 | 
[V:1] _e2c2- | 
[V:2] BA/G/F2 | 
[V:3] G,2A,2- | 
[V:4] _E,,2F,,2 | 
[V:1] cf>_ed/c/ | 
[V:2] zD>_EF- | 
[V:3] A,2B,3/A,/ | 
[V:4] F,2B,,3/C,/ | 
[V:1] B>Ac2 | 
[V:2] FDE2 | 
[V:3] F,2G,2 | 
[V:4] D,2C,2 | 
[V:1] z4 | 
[V:2] F/G/A/B/cB- | 
[V:3] F,4 | 
[V:4] D,>C,A,,B,,- | 
[V:1] z4 | 
[V:2] B/A/G/F/E2 | 
[V:3] G,4 | 
[V:4] B,,C,>B,,C, | 
[V:1] z4 | 
[V:2] Fc2d | 
[V:3] A,2F,2 | 
[V:4] F,,>G,,A,,B,, | 
[V:1] z4 | 
[V:2] B_e2d/c/ | 
[V:3] G,2_E,2 | 
[V:4] G,,C,>B,,C, | 
[V:1] z2d2 | 
[V:2] Bd>AB | 
[V:3] D,4 | 
[V:4] D,>E,F,2 | 
[V:1] e>fg3/f/ | 
[V:2] c4 | 
[V:3] C,4 | 
[V:4] G,>F, E,/D,/C,- | 
[V:1] e/d/c2A | 
[V:2] z4 | 
[V:3] z4 | 
[V:4] C,F,2F,- | 
[V:1] FA2B | 
[V:2] z4 | 
[V:3] z2F,2 | 
[V:4] F,2D,B,, | 
[V:1] GB2c | 
[V:2] z4 | 
[V:3] G,4 | 
[V:4] _E,3C, | 
[V:1] Ac2d | 
[V:2] z4 | 
[V:3] A,4 | 
[V:4] F,3D, | 
[V:1] Bd2g- | 
[V:2] z4 | 
[V:3] B,4 | 
[V:4] G,>F,D,_E, | 
[V:1] g/f/e/d/cf- | 
[V:2] z2F2 | 
[V:3] C2A,2 | 
[V:4] C,2z2 | 
[V:1] fe/d/ e/d/c/B/ | 
[V:2] GE>FG/E/ | 
[V:3] G,4 | 
[V:4] z4 | 
[V:1] Aa2g- | 
[V:2] F>ECD | 
[V:3] F,C2B, | 
[V:4] F,,>G,,A,,B,, | 
[V:1] gf2e | 
[V:2] CBc2 | 
[V:3] A,F,G,2 | 
[V:4] C,D,C,2 | 
[V:1] f4- | 
[V:2] d2cd- | 
[V:3] F,4- | 
[V:4] F,,>G,,A,,B,,- | 
[V:1] f4- | 
[V:2] dc/B/cd | 
[V:3] F,4- | 
[V:4] B,,A,,/G,,/A,,B,, | 
[V:1] f4 |]  
[V:2] c4 & A4 |]  
[V:3] F,4 |]  
[V:4] F,,4 |]  


